svg/tag.svg

<svg xmlns="http://www.w3.org/2000/svg" viewBox="0 0 64 64" enable-background="new 0 0 64 64"><style type="text/css">.st0{fill:#343434;}</style><title>tag</title><desc>Created with Sketch.</desc><path class="st0" d="M54.2.9l-16 .1c-1.1 0-2.6.7-3.4 1.4l-33.4 33.4c-.8.8-.8 2.1 0 2.8l24 24c.8.8 2.1.8 2.8 0l33.4-33.4c.8-.8 1.4-2.3 1.4-3.4l.1-16-8.9-8.9zm4.9 25c0 .1-.2.6-.3.6l-32 32-21.1-21.2 32-32 .6-.3 14.3-.1 6.7 6.7-.2 14.3zM43.7 10.5c-2.8 2.8-2.8 7.2-.1 10 2.7 2.7 7.2 2.7 10-.1 2.8-2.8 2.8-7.2.1-10-2.8-2.7-7.2-2.6-10 .1zm7.8 2.1c1.6 1.6 1.5 4.1-.1 5.7-1.6 1.6-4.2 1.6-5.7.1-1.6-1.6-1.5-4.1.1-5.7s4.2-1.7 5.7-.1z"/></svg>

<?xml version="1.0" encoding="utf-8"?>
<!-- Generator: Adobe Illustrator 21.0.0, SVG Export Plug-In . SVG Version: 6.00 Build 0)  -->
<svg version="1.1" id="Layer_1" xmlns="http://www.w3.org/2000/svg" xmlns:xlink="http://www.w3.org/1999/xlink" x="0px" y="0px"
	 viewBox="0 0 64 64" style="enable-background:new 0 0 64 64;" xml:space="preserve">
<style type="text/css">
	.st0{fill:#343434;}
</style>
<title>tag</title>
<desc>Created with Sketch.</desc>
<g>
	<path class="st0" d="M54.2,0.9L38.2,1c-1.1,0-2.6,0.7-3.4,1.4L1.4,35.8c-0.8,0.8-0.8,2.1,0,2.8l24,24c0.8,0.8,2.1,0.8,2.8,0
		l33.4-33.4c0.8-0.8,1.4-2.3,1.4-3.4l0.1-16L54.2,0.9z M59.1,25.9c0,0.1-0.2,0.6-0.3,0.6l-32,32L5.7,37.3l32-32c0,0,0.6-0.3,0.6-0.3
		l14.3-0.1l6.7,6.7L59.1,25.9z"/>
	<path class="st0" d="M43.7,10.5c-2.8,2.8-2.8,7.2-0.1,10c2.7,2.7,7.2,2.7,10-0.1c2.8-2.8,2.8-7.2,0.1-10
		C50.9,7.7,46.5,7.8,43.7,10.5z M51.5,12.6c1.6,1.6,1.5,4.1-0.1,5.7c-1.6,1.6-4.2,1.6-5.7,0.1c-1.6-1.6-1.5-4.1,0.1-5.7
		S50,11,51.5,12.6z"/>
</g>
</svg>
